svg/business/trophy_line.svg

<?xml version="1.0" encoding="UTF-8"?>
<svg width="24px" height="24px" viewBox="0 0 24 24" version="1.1" xmlns="http://www.w3.org/2000/svg" xmlns:xlink="http://www.w3.org/1999/xlink">
    <title>trophy_line</title>
    <g id="页面-1" stroke="none" stroke-width="1" fill="none" fill-rule="evenodd">
        <g id="Business" transform="translate(-432.000000, -96.000000)">
            <g id="trophy_line" transform="translate(432.000000, 96.000000)">
                <path d="M24,0 L24,24 L0,24 L0,0 L24,0 Z M12.5934901,23.257841 L12.5819402,23.2595131 L12.5108777,23.2950439 L12.4918791,23.2987469 L12.4918791,23.2987469 L12.4767152,23.2950439 L12.4056548,23.2595131 C12.3958229,23.2563662 12.3870493,23.2590235 12.3821421,23.2649074 L12.3780323,23.275831 L12.360941,23.7031097 L12.3658947,23.7234994 L12.3769048,23.7357139 L12.4804777,23.8096931 L12.4953491,23.8136134 L12.4953491,23.8136134 L12.5071152,23.8096931 L12.6106902,23.7357139 L12.6232938,23.7196733 L12.6232938,23.7196733 L12.6266527,23.7031097 L12.609561,23.275831 C12.6075724,23.2657013 12.6010112,23.2592993 12.5934901,23.257841 L12.5934901,23.257841 Z M12.8583906,23.1452862 L12.8445485,23.1473072 L12.6598443,23.2396597 L12.6498822,23.2499052 L12.6498822,23.2499052 L12.6471943,23.2611114 L12.6650943,23.6906389 L12.6699349,23.7034178 L12.6699349,23.7034178 L12.678386,23.7104931 L12.8793402,23.8032389 C12.8914285,23.8068999 12.9022333,23.8029875 12.9078286,23.7952264 L12.9118235,23.7811639 L12.8776777,23.1665331 C12.8752882,23.1545897 12.8674102,23.1470016 12.8583906,23.1452862 L12.8583906,23.1452862 Z M12.1430473,23.1473072 C12.1332178,23.1423925 12.1221763,23.1452606 12.1156365,23.1525954 L12.1099173,23.1665331 L12.0757714,23.7811639 C12.0751323,23.7926639 12.0828099,23.8018602 12.0926481,23.8045676 L12.108256,23.8032389 L12.3092106,23.7104931 L12.3186497,23.7024347 L12.3186497,23.7024347 L12.3225043,23.6906389 L12.340401,23.2611114 L12.337245,23.2485176 L12.337245,23.2485176 L12.3277531,23.2396597 L12.1430473,23.1473072 Z" id="MingCute" fill-rule="nonzero"></path>
                <path d="M16.6171,3 C17.6258,3 18.4766,3.75107 18.6017,4.75193 L18.7577,6 L19.4263,6 C20.8714,6 21.9553,7.32212 21.6719,8.7392 L21.4708,9.74466 C21.1596,11.3007 19.9811,12.4983 18.4992,12.8752 C17.4922,15.0102 15.4578,16.5902 12.9999,16.9313 L12.9999,19 L15.9999,19 C16.5522,19 16.9999,19.4477 16.9999,20 C16.9999,20.5523 16.5522,21 15.9999,21 L7.99993,21 C7.44764,21 6.99993,20.5523 6.99993,20 C6.99993,19.4477 7.44764,19 7.99993,19 L10.9999,19 L10.9999,16.9313 C8.54203,16.5902 6.50763,15.0102 5.50062,12.8752 C4.01874,12.4983 2.84026,11.3007 2.52906,9.74466 L2.32796,8.7392 C2.04455,7.32212 3.12843,6 4.57357,6 L5.24215,6 L5.39815,4.75193 C5.52326,3.75107 6.37406,3 7.38271,3 L16.6171,3 Z M16.6171,5 L7.38271,5 L6.86045,9.17809 C6.47403,12.2695 8.88448,15 11.9999,15 C15.1154,15 17.5258,12.2695 17.1394,9.17809 L16.6171,5 Z M19.4263,8 L19.0077,8 L19.124,8.93002 C19.1748,9.3364 19.1907,9.73828 19.1742,10.1329 C19.30324,9.950316 19.403608,9.7448584 19.4680848,9.52238448 L19.5096,9.35243 L19.7107,8.34697 C19.7421125,8.1899075 19.6409187,8.04205547 19.4925338,8.00754656 L19.4263,8 Z M4.99215,8 L4.57357,8 C4.39052,8 4.25323,8.16747 4.28913,8.34697 L4.49022,9.35243 C4.54787,9.6407 4.66434,9.90467 4.82563,10.1329 C4.80917,9.73828 4.8251,9.3364 4.87589,8.93002 L4.99215,8 Z" id="形状" fill="#09244B"></path>
            </g>
        </g>
    </g>
</svg>

<svg xmlns="http://www.w3.org/2000/svg" width="24" height="24"><g fill="none" fill-rule="evenodd"><path d="M24 0v24H0V0zM12.593 23.258l-.011.002-.071.035-.02.004-.014-.004-.071-.035c-.01-.004-.019-.001-.024.005l-.004.01-.017.428.005.02.01.013.104.074.015.004.012-.004.104-.074.012-.016.004-.017-.017-.427c-.002-.01-.009-.017-.017-.018m.265-.113-.013.002-.185.093-.01.01-.003.011.018.43.005.012.008.007.201.093c.012.004.023 0 .029-.008l.004-.014-.034-.614c-.003-.012-.01-.02-.02-.022m-.715.002a.023.023 0 0 0-.027.006l-.006.014-.034.614c0 .012.007.02.017.024l.015-.002.201-.093.01-.008.004-.011.017-.43-.003-.012-.01-.01z"/><path fill="#09244B" d="M16.617 3a2 2 0 0 1 1.985 1.752L18.758 6h.668a2.29 2.29 0 0 1 2.246 2.74l-.201 1.005a4.05 4.05 0 0 1-2.972 3.13 7.184 7.184 0 0 1-5.5 4.056V19h3a1 1 0 1 1 0 2H8a1 1 0 1 1 0-2h3v-2.069a7.184 7.184 0 0 1-5.498-4.056 4.05 4.05 0 0 1-2.972-3.13l-.201-1.006A2.29 2.29 0 0 1 4.574 6h.668l.156-1.248A2 2 0 0 1 7.383 3zm0 2H7.383L6.86 9.178a5.18 5.18 0 1 0 10.28 0zm2.81 3h-.42l.117.93c.05.406.067.808.05 1.203.13-.183.23-.388.294-.61l.042-.17.2-1.006a.29.29 0 0 0-.217-.34zM4.991 8h-.418a.29.29 0 0 0-.285.347l.201 1.005c.058.289.174.553.336.78-.017-.394 0-.796.05-1.202z"/></g></svg>
